X: 202
T: Three Forks of Sandy
B: canberra pickers and fiddlers
B: old time tunes update
B: tunes
M:C|
L:1/8
Q: 1/4=100
K:G
V:1 
Bc|d2 ge g2gg|d2 gg e2d2|dfaf afaf|g2bg agee|
d2 ge gage|degg e2dA|BAGB AGED|EG2G G2:|
|:([GB]c)BG ([GB]c)BG|B2 gge2d2|BAGB AGEG|+slide+B2+slide+B2- BAGE|
DEGG DEGG|BAB2 e2d2|BAGB AGED|EG2G G2:|]
% abcbook-tune_id 67a7d9ec547e996271f8ecd5
% abcbook-tune_composer_id 
% abcbook-link-0 https://www.youtube.com/watch?v=U20amg1eLDI
% abcbook-link-title-0 Three Forks of Sandy
% abcbook-link-start-at-0 6
% abcbook-boost 0
% abcbook-difficulty 0
% abcbook-tags old time tunes
% abcbook-tablature 
% abcbook-transpose 
% abcbook-tuning GDAD
% abcbook-lastupdated 1739245483261
% abcbook-src-url 
% abcbook-soundfonts 
% abcbook-repeats 1


